packages/kaspersky-hexa-ui-icons/src/iconsSVGs/24/Integration.svg

<svg width="24" height="24" viewBox="0 0 24 24" fill="none" xmlns="http://www.w3.org/2000/svg">
<path fill-rule="evenodd" clip-rule="evenodd" d="M6.68726 1.30884C8.63414 1.30884 10.2124 2.8871 10.2124 4.83398C10.2124 5.1282 10.1764 5.414 10.1084 5.6872L14.2076 8.20754C13.7615 8.70239 13.4037 9.27829 13.1588 9.91049L9.09299 7.41065C8.46308 7.99902 7.61722 8.35913 6.68726 8.35913C4.74037 8.35913 3.16211 6.78087 3.16211 4.83398C3.16211 2.8871 4.74037 1.30884 6.68726 1.30884ZM8.2124 4.83398C8.2124 3.99167 7.52957 3.30884 6.68726 3.30884C5.84494 3.30884 5.16211 3.99167 5.16211 4.83398C5.16211 5.6763 5.84494 6.35913 6.68726 6.35913C7.52957 6.35913 8.2124 5.6763 8.2124 4.83398Z" fill="black"/>
<path fill-rule="evenodd" clip-rule="evenodd" d="M7.83789 15.8327C9.21979 16.3097 10.2124 17.6219 10.2124 19.1658C10.2124 21.1127 8.63414 22.691 6.68726 22.691C4.74037 22.691 3.16211 21.1127 3.16211 19.1658C3.16211 17.5118 4.3013 16.1238 5.83789 15.7437V10.2942C6.11477 10.337 6.39842 10.3591 6.68726 10.3591C7.08183 10.3591 7.46674 10.3178 7.83789 10.2391V15.8327ZM8.2124 19.1658C8.2124 18.3235 7.52957 17.6407 6.68726 17.6407C5.84494 17.6407 5.16211 18.3235 5.16211 19.1658C5.16211 20.0081 5.84494 20.691 6.68726 20.691C7.52957 20.691 8.2124 20.0081 8.2124 19.1658Z" fill="black"/>
<path fill-rule="evenodd" clip-rule="evenodd" d="M21.8379 11.9055C21.8379 9.95866 20.2596 8.3804 18.3127 8.3804C16.3659 8.3804 14.7876 9.95866 14.7876 11.9055C14.7876 12.2584 14.8394 12.5991 14.9359 12.9206L10.7926 15.4681C11.2387 15.9629 11.5965 16.5389 11.8413 17.1711L16.0326 14.5941C16.6473 15.1159 17.4433 15.4307 18.3127 15.4307C20.2596 15.4307 21.8379 13.8524 21.8379 11.9055ZM18.3127 10.3804C19.1551 10.3804 19.8379 11.0632 19.8379 11.9055C19.8379 12.7479 19.1551 13.4307 18.3127 13.4307C17.4704 13.4307 16.7876 12.7479 16.7876 11.9055C16.7876 11.0632 17.4704 10.3804 18.3127 10.3804Z" fill="black"/>
</svg>

<svg xmlns="http://www.w3.org/2000/svg" width="24" height="24" fill="none" viewBox="0 0 24 24"><path d="M0 24h24V0H0z"/><path fill="#000" fill-rule="evenodd" d="M6.6873 1.309c1.9469 0 3.5251 1.5782 3.5251 3.5251 0 .2942-.036.58-.104.8532l4.0992 2.5204a5.53 5.53 0 0 0-1.0488 1.703l-4.0658-2.5c-.63.5884-1.4758.9486-2.4058.9486-1.9468 0-3.525-1.5783-3.525-3.5252S4.7403 1.309 6.6871 1.309m1.5252 3.525c0-.8423-.6828-1.5251-1.5252-1.5251-.8422 0-1.525.6828-1.525 1.5251s.6827 1.5252 1.525 1.5252c.8424 0 1.5252-.6829 1.5252-1.5252m10.1003 3.5464c1.9469 0 3.5252 1.5783 3.5252 3.5252s-1.5783 3.5251-3.5252 3.5251a3.51 3.51 0 0 1-2.2801-.8366l-4.1913 2.577a5.52 5.52 0 0 0-1.0487-1.703l4.1433-2.5475a3.53 3.53 0 0 1-.1483-1.015c0-1.947 1.5783-3.5252 3.5251-3.5252M7.8379 15.833c1.3819.4769 2.3745 1.7891 2.3745 3.3331 0 1.9468-1.5783 3.5251-3.5252 3.5251s-3.525-1.5783-3.525-3.5251c0-1.6541 1.1391-3.0421 2.6757-3.4222v-5.4494a5.6 5.6 0 0 0 .8493.0649c.3946 0 .7796-.0414 1.1507-.12zm12-3.9272c0-.8423-.6828-1.5252-1.5252-1.5252s-1.5251.6829-1.5251 1.5252.6828 1.5251 1.5251 1.5251c.8424 0 1.5252-.6828 1.5252-1.5251M8.2124 19.166c0-.8424-.6828-1.5252-1.5252-1.5252-.8422 0-1.525.6828-1.525 1.5252s.6827 1.5251 1.525 1.5251c.8424 0 1.5252-.6828 1.5252-1.5251"/></svg>
